img/prfa-logo.svg

<?xml version="1.0" encoding="UTF-8" standalone="no"?>
<svg
   width="1559.9653pt"
   height="474.18359pt"
   viewBox="0 0 1559.9653 474.18359"
   version="1.1"
   id="svg23"
   sodipodi:docname="prfa-logo.svg"
   inkscape:version="1.3.2 (091e20e, 2023-11-25)"
   xmlns:inkscape="http://www.inkscape.org/namespaces/inkscape"
   xmlns:sodipodi="http://sodipodi.sourceforge.net/DTD/sodipodi-0.dtd"
   xmlns:xlink="http://www.w3.org/1999/xlink"
   xmlns="http://www.w3.org/2000/svg"
   xmlns:svg="http://www.w3.org/2000/svg">
  <sodipodi:namedview
     id="namedview23"
     pagecolor="#ffffff"
     bordercolor="#666666"
     borderopacity="1.0"
     inkscape:showpageshadow="2"
     inkscape:pageopacity="0.0"
     inkscape:pagecheckerboard="0"
     inkscape:deskcolor="#d1d1d1"
     inkscape:document-units="pt"
     inkscape:zoom="0.33945313"
     inkscape:cx="1029.5972"
     inkscape:cy="394.75258"
     inkscape:window-width="1440"
     inkscape:window-height="847"
     inkscape:window-x="0"
     inkscape:window-y="25"
     inkscape:window-maximized="1"
     inkscape:current-layer="svg23" />
  <defs
     id="defs6">
    <g
       id="g6">
      <g
         id="glyph-0-0">
        <path
           d="m 58.625,-163.51562 42,118.593745 41.78125,-118.593745 h 44.25 V 0 h -33.8125 v -44.703125 l 3.375,-77.140625 L 112.07813,0 H 88.953125 l -44.03125,-121.73438 3.375,77.031255 V 0 H 14.59375 v -163.51562 z m 0,0"
           id="path1" />
      </g>
      <g
         id="glyph-0-1">
        <path
           d="M 48.296875,-57.609375 V 0 H 14.59375 v -163.51562 h 63.796875 c 12.28125,0 23.078125,2.24609 32.390625,6.73437 9.32031,4.49219 16.48828,10.875 21.5,19.15625 5.01953,8.27344 7.53125,17.68359 7.53125,28.23437 0,16.023442 -5.48438,28.656255 -16.45312,37.906255 -10.96094,9.25 -26.136724,13.875 -45.531255,13.875 z m 0,-27.296875 h 30.09375 c 8.90625,0 15.695313,-2.09375 20.375,-6.28125 4.687505,-4.195312 7.031255,-10.1875 7.031255,-17.96875 0,-8.00781 -2.35938,-14.48438 -7.07813,-19.42187 -4.71875,-4.94532 -11.234375,-7.49219 -19.546875,-7.64063 h -30.875 z m 0,0"
           id="path2" />
      </g>
      <g
         id="glyph-0-2">
        <path
           d="M 75.125,-59.859375 H 48.296875 V 0 H 14.59375 v -163.51562 h 60.765625 c 19.3125,0 34.207035,4.30859 44.687505,12.92187 10.48828,8.60547 15.73437,20.76563 15.73437,36.48437 0,11.15625 -2.41797,20.464849 -7.25,27.92188 -4.82422,7.449219 -12.14062,13.382812 -21.95312,17.796875 l 35.37499,66.8125 V 0 H 105.79688 Z M 48.296875,-87.15625 H 75.46875 c 8.457031,0 15.003906,-2.148438 19.640625,-6.453125 4.644531,-4.300781 6.968755,-10.234375 6.968755,-17.796875 0,-7.70703 -2.187505,-13.76953 -6.562505,-18.1875 -4.375,-4.41406 -11.09375,-6.625 -20.15625,-6.625 h -27.0625 z m 0,0"
           id="path3" />
      </g>
      <g
         id="glyph-0-3">
        <path
           d="m 50.421875,0 h -33.6875 v -163.51562 h 33.6875 z m 0,0"
           id="path4" />
      </g>
      <g
         id="glyph-0-4">
        <path
           d="M 112.98438,-66.828125 H 48.296875 V 0 H 14.59375 V -163.51562 H 121.0625 v 27.29687 H 48.296875 V -94 h 64.687505 z m 0,0"
           id="path5" />
      </g>
      <g
         id="glyph-0-5">
        <path
           d="M 106.92188,-33.6875 H 47.84375 L 36.609375,0 H 0.78125 l 60.875,-163.51562 H 92.875 L 154.07812,0 H 118.25 Z M 56.9375,-60.984375 h 40.875 L 77.265625,-122.1875 Z m 0,0"
           id="path6" />
      </g>
    </g>
  </defs>
  <path
     fill-rule="nonzero"
     fill="#222222"
     fill-opacity="1"
     d="m 595.33765,118.80859 57.1875,355.375 h 49.25 c -38.78125,-98.39063 -38.78125,-256.98438 0,-355.375 z m 248.9375,0 c 38.7813,98.39062 38.7813,256.98437 0,355.375 h 49.25 l 57.1875,-355.375 z m 0,0"
     id="path7" />
  <path
     fill-rule="nonzero"
     fill="#fdcb56"
     fill-opacity="1"
     d="m 773.02515,4e-6 c -22.25391,0 -44.49219,8.49218 -61.46875,25.46875 -16.78516,16.78906 -25.25,38.71875 -25.4375,60.71875 h 173.81255 c -0.1875,-22 -8.6485,-43.92969 -25.4376,-60.71875 C 817.51345,8.492184 795.27906,4e-6 773.02515,4e-6 Z m 0,0"
     id="path8" />
  <path
     fill-rule="nonzero"
     fill="#fdcb56"
     fill-opacity="1"
     d="m 773.02515,124.58984 41.9062,-65.667966 H 731.1189 Z m 0,0"
     id="path9" />
  <path
     fill="none"
     stroke-width="4"
     stroke-linecap="butt"
     stroke-linejoin="miter"
     stroke="#222222"
     stroke-opacity="1"
     stroke-miterlimit="4"
     d="m 749.48218,24.292969 c 10.38281,10.382812 10.38281,27.222656 0,37.605469 -10.38672,10.386718 -27.22266,10.386718 -37.60938,0 -10.38281,-10.382813 -10.38281,-27.222657 0,-37.605469 10.38672,-10.386719 27.22266,-10.386719 37.60938,0 z m 0,0"
     id="path10" />
  <path
     fill-rule="nonzero"
     fill="#222222"
     fill-opacity="1"
     d="m 692.68921,48.769534 h 11.34375 v -11.34766 h -11.34375 z m 0,0"
     id="path11" />
  <path
     fill-rule="nonzero"
     fill="#222222"
     fill-opacity="1"
     d="m 777.03687,148.14843 c 2.21484,2.21485 2.21484,5.80469 0,8.01953 -2.21485,2.21485 -5.8086,2.21485 -8.02344,0 -2.21484,-2.21484 -2.21484,-5.80468 0,-8.01953 2.21484,-2.21875 5.80859,-2.21875 8.02344,0 z m 0,0"
     id="path12" />
  <path
     fill-rule="nonzero"
     fill="#222222"
     fill-opacity="1"
     d="m 778.82202,152.15625 36.10933,-18.05469 v 36.11328 z m 0,0"
     id="path13" />
  <path
     fill-rule="nonzero"
     fill="#222222"
     fill-opacity="1"
     d="m 766.79077,152.15625 -36.11328,-18.05469 v 36.11328 z m 0,0"
     id="path14" />
  <path
     fill-rule="nonzero"
     fill="#222222"
     fill-opacity="1"
     d="m 777.03687,200.375 c 2.21484,2.21484 2.21484,5.80468 0,8.01953 -2.21485,2.21875 -5.8086,2.21875 -8.02344,0 -2.21484,-2.21485 -2.21484,-5.80469 0,-8.01953 2.21484,-2.21485 5.80859,-2.21485 8.02344,0 z m 0,0"
     id="path15" />
  <path
     fill-rule="nonzero"
     fill="#222222"
     fill-opacity="1"
     d="m 777.03687,252.60156 c 2.21484,2.21484 2.21484,5.80859 0,8.02344 -2.21485,2.21484 -5.8086,2.21484 -8.02344,0 -2.21484,-2.21485 -2.21484,-5.8086 0,-8.02344 2.21484,-2.21485 5.80859,-2.21485 8.02344,0 z m 0,0"
     id="path16" />
  <use
     xlink:href="#glyph-0-0"
     x="172.3811"
     y="618.34772"
     id="use16"
     style="fill:#222222;fill-opacity:1"
     transform="translate(-186.97485,-243.50391)" />
  <use
     xlink:href="#glyph-0-1"
     x="373.86111"
     y="618.34772"
     id="use17"
     style="fill:#222222;fill-opacity:1"
     transform="translate(-186.97485,-243.50391)" />
  <use
     xlink:href="#glyph-0-2"
     x="522.21112"
     y="618.34772"
     id="use18"
     style="fill:#222222;fill-opacity:1"
     transform="translate(-186.97485,-243.50391)" />
  <use
     xlink:href="#glyph-0-3"
     x="668.99707"
     y="618.34772"
     id="use19"
     style="fill:#222222;fill-opacity:1"
     transform="translate(-186.97485,-243.50391)" />
  <use
     xlink:href="#glyph-0-1"
     x="1193.283"
     y="618.34772"
     id="use20"
     style="fill:#222222;fill-opacity:1"
     transform="translate(-186.97485,-243.50391)" />
  <use
     xlink:href="#glyph-0-2"
     x="1341.6331"
     y="618.34772"
     id="use21"
     style="fill:#222222;fill-opacity:1"
     transform="translate(-186.97485,-243.50391)" />
  <use
     xlink:href="#glyph-0-4"
     x="1488.4189"
     y="618.34772"
     id="use22"
     style="fill:#222222;fill-opacity:1"
     transform="translate(-186.97485,-243.50391)" />
  <use
     xlink:href="#glyph-0-5"
     x="1592.8621"
     y="618.34772"
     id="use23"
     style="fill:#222222;fill-opacity:1"
     transform="translate(-186.97485,-243.50391)" />
</svg>

<?xml version="1.0" encoding="UTF-8" standalone="no"?>
<svg
   width="1920pt"
   height="1080pt"
   viewBox="0 0 1920 1080"
   version="1.1"
   id="svg23"
   sodipodi:docname="prfa-logo.svg"
   inkscape:version="1.3.2 (091e20e, 2023-11-25)"
   xmlns:inkscape="http://www.inkscape.org/namespaces/inkscape"
   xmlns:sodipodi="http://sodipodi.sourceforge.net/DTD/sodipodi-0.dtd"
   xmlns:xlink="http://www.w3.org/1999/xlink"
   xmlns="http://www.w3.org/2000/svg"
   xmlns:svg="http://www.w3.org/2000/svg">
  <sodipodi:namedview
     id="namedview23"
     pagecolor="#ffffff"
     bordercolor="#666666"
     borderopacity="1.0"
     inkscape:showpageshadow="2"
     inkscape:pageopacity="0.0"
     inkscape:pagecheckerboard="0"
     inkscape:deskcolor="#d1d1d1"
     inkscape:document-units="pt"
     inkscape:zoom="0.33945313"
     inkscape:cx="1280"
     inkscape:cy="718.80322"
     inkscape:window-width="1440"
     inkscape:window-height="847"
     inkscape:window-x="0"
     inkscape:window-y="25"
     inkscape:window-maximized="1"
     inkscape:current-layer="svg23" />
  <defs
     id="defs6">
    <g
       id="g6">
      <g
         id="glyph-0-0">
        <path
           d="M 58.625 -163.515625 L 100.625 -44.921875 L 142.40625 -163.515625 L 186.65625 -163.515625 L 186.65625 0 L 152.84375 0 L 152.84375 -44.703125 L 156.21875 -121.84375 L 112.078125 0 L 88.953125 0 L 44.921875 -121.734375 L 48.296875 -44.703125 L 48.296875 0 L 14.59375 0 L 14.59375 -163.515625 Z M 58.625 -163.515625 "
           id="path1" />
      </g>
      <g
         id="glyph-0-1">
        <path
           d="M 48.296875 -57.609375 L 48.296875 0 L 14.59375 0 L 14.59375 -163.515625 L 78.390625 -163.515625 C 90.671875 -163.515625 101.46875 -161.269531 110.78125 -156.78125 C 120.101562 -152.289062 127.269531 -145.90625 132.28125 -137.625 C 137.300781 -129.351562 139.8125 -119.941406 139.8125 -109.390625 C 139.8125 -93.367188 134.328125 -80.734375 123.359375 -71.484375 C 112.398438 -62.234375 97.222656 -57.609375 77.828125 -57.609375 Z M 48.296875 -84.90625 L 78.390625 -84.90625 C 87.296875 -84.90625 94.085938 -87 98.765625 -91.1875 C 103.453125 -95.382812 105.796875 -101.375 105.796875 -109.15625 C 105.796875 -117.164062 103.4375 -123.640625 98.71875 -128.578125 C 94 -133.523438 87.484375 -136.070312 79.171875 -136.21875 L 48.296875 -136.21875 Z M 48.296875 -84.90625 "
           id="path2" />
      </g>
      <g
         id="glyph-0-2">
        <path
           d="M 75.125 -59.859375 L 48.296875 -59.859375 L 48.296875 0 L 14.59375 0 L 14.59375 -163.515625 L 75.359375 -163.515625 C 94.671875 -163.515625 109.566406 -159.207031 120.046875 -150.59375 C 130.535156 -141.988281 135.78125 -129.828125 135.78125 -114.109375 C 135.78125 -102.953125 133.363281 -93.644531 128.53125 -86.1875 C 123.707031 -78.738281 116.390625 -72.804688 106.578125 -68.390625 L 141.953125 -1.578125 L 141.953125 0 L 105.796875 0 Z M 48.296875 -87.15625 L 75.46875 -87.15625 C 83.925781 -87.15625 90.472656 -89.304688 95.109375 -93.609375 C 99.753906 -97.910156 102.078125 -103.84375 102.078125 -111.40625 C 102.078125 -119.113281 99.890625 -125.175781 95.515625 -129.59375 C 91.140625 -134.007812 84.421875 -136.21875 75.359375 -136.21875 L 48.296875 -136.21875 Z M 48.296875 -87.15625 "
           id="path3" />
      </g>
      <g
         id="glyph-0-3">
        <path
           d="M 50.421875 0 L 16.734375 0 L 16.734375 -163.515625 L 50.421875 -163.515625 Z M 50.421875 0 "
           id="path4" />
      </g>
      <g
         id="glyph-0-4">
        <path
           d="M 112.984375 -66.828125 L 48.296875 -66.828125 L 48.296875 0 L 14.59375 0 L 14.59375 -163.515625 L 121.0625 -163.515625 L 121.0625 -136.21875 L 48.296875 -136.21875 L 48.296875 -94 L 112.984375 -94 Z M 112.984375 -66.828125 "
           id="path5" />
      </g>
      <g
         id="glyph-0-5">
        <path
           d="M 106.921875 -33.6875 L 47.84375 -33.6875 L 36.609375 0 L 0.78125 0 L 61.65625 -163.515625 L 92.875 -163.515625 L 154.078125 0 L 118.25 0 Z M 56.9375 -60.984375 L 97.8125 -60.984375 L 77.265625 -122.1875 Z M 56.9375 -60.984375 "
           id="path6" />
      </g>
    </g>
  </defs>
  <path
     fill-rule="nonzero"
     fill="rgb(13.33313%, 13.33313%, 13.33313%)"
     fill-opacity="1"
     d="M 782.3125 362.3125 L 839.5 717.6875 L 888.75 717.6875 C 849.96875 619.296875 849.96875 460.703125 888.75 362.3125 Z M 1031.25 362.3125 C 1070.03125 460.703125 1070.03125 619.296875 1031.25 717.6875 L 1080.5 717.6875 L 1137.6875 362.3125 Z M 1031.25 362.3125 "
     id="path7" />
  <path
     fill-rule="nonzero"
     fill="rgb(99.215698%, 79.608154%, 33.724976%)"
     fill-opacity="1"
     d="M 960 243.503906 C 937.746094 243.503906 915.507812 251.996094 898.53125 268.972656 C 881.746094 285.761719 873.28125 307.691406 873.09375 329.691406 L 1046.90625 329.691406 C 1046.71875 307.691406 1038.257812 285.761719 1021.46875 268.972656 C 1004.488281 251.996094 982.253906 243.503906 960 243.503906 Z M 960 243.503906 "
     id="path8" />
  <path
     fill-rule="nonzero"
     fill="rgb(99.215698%, 79.608154%, 33.724976%)"
     fill-opacity="1"
     d="M 960 368.09375 L 1001.90625 302.425781 L 918.09375 302.425781 Z M 960 368.09375 "
     id="path9" />
  <path
     fill="none"
     stroke-width="4"
     stroke-linecap="butt"
     stroke-linejoin="miter"
     stroke="rgb(13.33313%, 13.33313%, 13.33313%)"
     stroke-opacity="1"
     stroke-miterlimit="4"
     d="M 45.396131 7.788875 C 55.778944 18.171687 55.778944 35.011531 45.396131 45.394344 C 35.009413 55.781062 18.173475 55.781062 7.786756 45.394344 C -2.596056 35.011531 -2.596056 18.171687 7.786756 7.788875 C 18.173475 -2.597844 35.009413 -2.597844 45.396131 7.788875 Z M 45.396131 7.788875 "
     transform="matrix(1, 0, 0, 1, 891.0609, 260.008)"
     id="path10" />
  <path
     fill-rule="nonzero"
     fill="rgb(13.33313%, 13.33313%, 13.33313%)"
     fill-opacity="1"
     d="M 879.664062 292.273438 L 891.007812 292.273438 L 891.007812 280.925781 L 879.664062 280.925781 Z M 879.664062 292.273438 "
     id="path11" />
  <path
     fill-rule="nonzero"
     fill="rgb(13.33313%, 13.33313%, 13.33313%)"
     fill-opacity="1"
     d="M 964.011719 391.652344 C 966.226562 393.867188 966.226562 397.457031 964.011719 399.671875 C 961.796875 401.886719 958.203125 401.886719 955.988281 399.671875 C 953.773438 397.457031 953.773438 393.867188 955.988281 391.652344 C 958.203125 389.433594 961.796875 389.433594 964.011719 391.652344 Z M 964.011719 391.652344 "
     id="path12" />
  <path
     fill-rule="nonzero"
     fill="rgb(13.33313%, 13.33313%, 13.33313%)"
     fill-opacity="1"
     d="M 965.796875 395.660156 L 1001.90625 377.605469 L 1001.90625 413.71875 Z M 965.796875 395.660156 "
     id="path13" />
  <path
     fill-rule="nonzero"
     fill="rgb(13.33313%, 13.33313%, 13.33313%)"
     fill-opacity="1"
     d="M 953.765625 395.660156 L 917.652344 377.605469 L 917.652344 413.71875 Z M 953.765625 395.660156 "
     id="path14" />
  <path
     fill-rule="nonzero"
     fill="rgb(13.33313%, 13.33313%, 13.33313%)"
     fill-opacity="1"
     d="M 964.011719 443.878906 C 966.226562 446.09375 966.226562 449.683594 964.011719 451.898438 C 961.796875 454.117188 958.203125 454.117188 955.988281 451.898438 C 953.773438 449.683594 953.773438 446.09375 955.988281 443.878906 C 958.203125 441.664062 961.796875 441.664062 964.011719 443.878906 Z M 964.011719 443.878906 "
     id="path15" />
  <path
     fill-rule="nonzero"
     fill="rgb(13.33313%, 13.33313%, 13.33313%)"
     fill-opacity="1"
     d="M 964.011719 496.105469 C 966.226562 498.320312 966.226562 501.914062 964.011719 504.128906 C 961.796875 506.34375 958.203125 506.34375 955.988281 504.128906 C 953.773438 501.914062 953.773438 498.320312 955.988281 496.105469 C 958.203125 493.890625 961.796875 493.890625 964.011719 496.105469 Z M 964.011719 496.105469 "
     id="path16" />
  <use
     xlink:href="#glyph-0-0"
     x="172.3811"
     y="618.34772"
     id="use16"
     style="fill:#222222;fill-opacity:1" />
  <use
     xlink:href="#glyph-0-1"
     x="373.86111"
     y="618.34772"
     id="use17"
     style="fill:#222222;fill-opacity:1" />
  <use
     xlink:href="#glyph-0-2"
     x="522.21112"
     y="618.34772"
     id="use18"
     style="fill:#222222;fill-opacity:1" />
  <use
     xlink:href="#glyph-0-3"
     x="668.99707"
     y="618.34772"
     id="use19"
     style="fill:#222222;fill-opacity:1" />
  <use
     xlink:href="#glyph-0-1"
     x="1193.283"
     y="618.34772"
     id="use20"
     style="fill:#222222;fill-opacity:1" />
  <use
     xlink:href="#glyph-0-2"
     x="1341.6331"
     y="618.34772"
     id="use21"
     style="fill:#222222;fill-opacity:1" />
  <use
     xlink:href="#glyph-0-4"
     x="1488.4189"
     y="618.34772"
     id="use22"
     style="fill:#222222;fill-opacity:1" />
  <use
     xlink:href="#glyph-0-5"
     x="1592.8621"
     y="618.34772"
     id="use23"
     style="fill:#222222;fill-opacity:1" />
</svg>
